icons/discount.svg

<svg width="14" height="17" viewBox="0 0 14 17" fill="none" xmlns="http://www.w3.org/2000/svg">
<path d="M13.722 6.24575L12.7424 4.70497C13.0566 4.2339 13.2297 3.68283 13.2411 3.11668C13.2461 3.08928 13.2481 3.0614 13.247 3.03356C13.2477 2.24106 12.9379 1.47984 12.3841 0.912953C11.8303 0.346072 11.0765 0.0186271 10.2842 0.000770431C9.49195 -0.0170863 8.72418 0.276065 8.1454 0.817421C7.56662 1.35878 7.22288 2.10528 7.18782 2.897L5.11267 3.81434C4.90874 3.90274 4.73384 4.04678 4.60798 4.22997L0.0539174 10.782C0.0221571 10.8266 0.00363359 10.8792 0.000482082 10.9338C-0.00266943 10.9884 0.00967926 11.0428 0.0361048 11.0907C0.551316 12.0723 1.27353 12.9302 2.15282 13.6053C3.02031 14.2672 4.02429 14.7276 5.09189 14.9531C5.1125 14.9565 5.13333 14.9585 5.15423 14.959C5.20533 14.9589 5.25551 14.9454 5.29978 14.9199C5.34405 14.8944 5.38087 14.8577 5.40657 14.8136L6.4961 12.9967V15.8704C6.49596 15.9272 6.51211 15.9828 6.54263 16.0307C6.57315 16.0786 6.61676 16.1167 6.66829 16.1406C7.77868 16.6569 8.98844 16.9243 10.213 16.9243C11.4375 16.9243 12.6473 16.6569 13.7577 16.1406C13.8094 16.1171 13.8533 16.079 13.8839 16.0311C13.9144 15.9831 13.9304 15.9273 13.9299 15.8704V6.95825C13.9301 6.70576 13.858 6.4585 13.722 6.24575ZM10.213 0.596216C10.8608 0.597553 11.4816 0.8559 11.9392 1.31454C12.3967 1.77318 12.6535 2.39464 12.6533 3.04247C12.6508 3.05717 12.6498 3.07209 12.6503 3.087C12.6416 3.45392 12.5503 3.81415 12.3831 4.1409L11.8725 3.33637C11.7221 3.10038 11.5145 2.90617 11.2691 2.77176C11.0236 2.63735 10.7482 2.56708 10.4683 2.56747H9.93095C9.7309 2.56774 9.53262 2.60498 9.3461 2.67731C9.14366 2.54395 8.91125 2.463 8.66976 2.44175C8.42827 2.4205 8.18529 2.45962 7.96267 2.55559L7.81126 2.62387C7.90939 2.0575 8.20392 1.5438 8.64314 1.17299C9.08235 0.80218 9.63817 0.597968 10.213 0.596216ZM6.4961 7.06809V11.8448L5.00876 14.3237C4.10313 14.1039 3.25298 13.6985 2.51204 13.1332C1.74807 12.5472 1.1125 11.8106 0.644699 10.969L5.09782 4.5684C5.16054 4.4759 5.24797 4.40287 5.35017 4.35762L8.20314 3.09887C8.37692 3.02569 8.57005 3.01212 8.75235 3.06028C8.65659 3.15265 8.57371 3.2575 8.50595 3.372L6.6861 6.38528C6.56283 6.59179 6.49722 6.82759 6.4961 7.06809ZM13.3361 15.6804C12.3489 16.1021 11.2865 16.3195 10.213 16.3195C9.13948 16.3195 8.07709 16.1021 7.08985 15.6804V7.06809C7.0909 6.93509 7.12782 6.80483 7.19673 6.69106L9.01361 3.67778C9.10966 3.52049 9.2444 3.39043 9.40499 3.3C9.56558 3.20958 9.74665 3.16179 9.93095 3.16122H10.4683C10.6484 3.16064 10.8257 3.20583 10.9836 3.29255C11.1414 3.37927 11.2747 3.50467 11.3708 3.657L12.018 4.67231C11.7908 4.92582 11.5125 5.12832 11.2014 5.26648C10.8902 5.40464 10.5534 5.47532 10.213 5.47387C10.0564 5.47176 9.90032 5.45486 9.74689 5.4234C9.80924 5.30827 9.90137 5.21199 10.0136 5.14462C10.1259 5.07725 10.2542 5.04127 10.3852 5.04043C10.4639 5.04043 10.5394 5.00916 10.5951 4.95348C10.6508 4.89781 10.682 4.8223 10.682 4.74356C10.682 4.66482 10.6508 4.58931 10.5951 4.53364C10.5394 4.47796 10.4639 4.44668 10.3852 4.44668C10.0344 4.44668 9.698 4.58603 9.44996 4.83406C9.20193 5.08209 9.06259 5.41849 9.06259 5.76926C9.06259 6.12003 9.20193 6.45644 9.44996 6.70447C9.698 6.9525 10.0344 7.09184 10.3852 7.09184C10.4639 7.09184 10.5394 7.06056 10.5951 7.00489C10.6508 6.94921 10.682 6.8737 10.682 6.79497C10.682 6.71623 10.6508 6.64072 10.5951 6.58504C10.5394 6.52937 10.4639 6.49809 10.3852 6.49809C10.2365 6.49793 10.0915 6.45235 9.96942 6.36746C9.84739 6.28256 9.75421 6.16241 9.70236 6.02309C10.1774 6.10571 10.6653 6.07306 11.1251 5.92789C11.5849 5.78273 12.0031 5.52928 12.3445 5.18887L13.2233 6.56637C13.2976 6.68354 13.3367 6.81953 13.3361 6.95825V15.6804Z" fill="#1B8CFF"/>
<path d="M8.8444 8.55249C8.65076 8.55308 8.46164 8.61104 8.30092 8.71904C8.1402 8.82705 8.0151 8.98026 7.9414 9.15932C7.86771 9.33839 7.84873 9.53528 7.88686 9.72512C7.925 9.91497 8.01854 10.0893 8.15567 10.226C8.2928 10.3627 8.46737 10.4557 8.65733 10.4933C8.84728 10.5308 9.04412 10.5112 9.22296 10.437C9.4018 10.3628 9.55463 10.2372 9.66215 10.0762C9.76967 9.91511 9.82705 9.72582 9.82705 9.53218C9.82705 9.40328 9.80161 9.27564 9.75219 9.15659C9.70277 9.03753 9.63034 8.9294 9.53906 8.83839C9.44777 8.74738 9.33942 8.67527 9.22022 8.62622C9.10101 8.57716 8.9733 8.5521 8.8444 8.55249ZM8.8444 9.91812C8.76819 9.91753 8.69387 9.8944 8.63079 9.85164C8.56772 9.80888 8.51871 9.7484 8.48996 9.67783C8.4612 9.60726 8.45398 9.52975 8.46921 9.45509C8.48443 9.38042 8.52142 9.31193 8.57551 9.25825C8.6296 9.20457 8.69837 9.16811 8.77316 9.15346C8.84794 9.13881 8.92538 9.14662 8.99573 9.17592C9.06608 9.20521 9.12618 9.25468 9.16846 9.31808C9.21074 9.38148 9.2333 9.45598 9.2333 9.53218C9.2333 9.58311 9.22322 9.63354 9.20364 9.68056C9.18406 9.72758 9.15537 9.77026 9.11922 9.80614C9.08306 9.84201 9.04017 9.87038 8.993 9.8896C8.94583 9.90882 8.89533 9.91851 8.8444 9.91812Z" fill="#1B8CFF"/>
<path d="M11.5818 11.9695C11.3877 11.9692 11.1979 12.0264 11.0364 12.134C10.8749 12.2416 10.7489 12.3946 10.6744 12.5738C10.5998 12.753 10.5801 12.9502 10.6177 13.1406C10.6553 13.331 10.7484 13.506 10.8855 13.6434C11.0225 13.7808 11.1971 13.8745 11.3874 13.9127C11.5777 13.9508 11.775 13.9317 11.9544 13.8577C12.1338 13.7837 12.2872 13.6582 12.3953 13.497C12.5033 13.3358 12.5612 13.1462 12.5615 12.9521C12.5613 12.6921 12.4581 12.4427 12.2745 12.2585C12.0909 12.0744 11.8418 11.9704 11.5818 11.9695ZM11.5818 13.3381C11.505 13.3384 11.4299 13.3159 11.366 13.2734C11.302 13.2309 11.2522 13.1705 11.2226 13.0996C11.1931 13.0287 11.1853 12.9507 11.2002 12.8754C11.2151 12.8001 11.2521 12.731 11.3063 12.6767C11.3606 12.6224 11.4298 12.5855 11.5051 12.5706C11.5804 12.5557 11.6584 12.5635 11.7292 12.593C11.8001 12.6225 11.8606 12.6724 11.903 12.7363C11.9455 12.8003 11.968 12.8754 11.9677 12.9521C11.9677 13.0545 11.9271 13.1527 11.8547 13.225C11.7823 13.2974 11.6841 13.3381 11.5818 13.3381Z" fill="#1B8CFF"/>
<path d="M11.9211 8.95914C11.8599 8.90968 11.7815 8.88655 11.7032 8.89484C11.625 8.90314 11.5532 8.94218 11.5037 9.00338L8.46249 12.7648C8.43797 12.7951 8.41967 12.83 8.40863 12.8674C8.39759 12.9049 8.39403 12.9441 8.39815 12.9829C8.40227 13.0217 8.41399 13.0593 8.43265 13.0936C8.4513 13.1279 8.47653 13.1581 8.50688 13.1826C8.53723 13.2072 8.57211 13.2255 8.60954 13.2365C8.64696 13.2475 8.68619 13.2511 8.72499 13.247C8.7638 13.2429 8.80141 13.2311 8.83568 13.2125C8.86995 13.1938 8.90021 13.1686 8.92473 13.1383L11.9659 9.37685C11.9904 9.34649 12.0087 9.31159 12.0197 9.27416C12.0307 9.23673 12.0342 9.1975 12.0301 9.1587C12.0259 9.11991 12.0142 9.08232 11.9955 9.04807C11.9767 9.01383 11.9515 8.98361 11.9211 8.95914Z" fill="#1B8CFF"/>
<path d="M4.43562 11.202C4.40561 11.1763 4.37076 11.1567 4.3331 11.1446C4.29545 11.1325 4.25576 11.1281 4.21636 11.1315C4.17695 11.1349 4.13863 11.1462 4.10365 11.1647C4.06867 11.1831 4.03773 11.2084 4.01264 11.239C3.98756 11.2696 3.96884 11.3048 3.95759 11.3428C3.94633 11.3807 3.94277 11.4205 3.9471 11.4598C3.95144 11.4991 3.96358 11.5372 3.98283 11.5717C4.00208 11.6063 4.02803 11.6366 4.05918 11.661L4.93021 12.3756C4.98299 12.4192 5.04935 12.4431 5.11783 12.443C5.17905 12.443 5.23878 12.4241 5.28884 12.3889C5.33891 12.3537 5.37686 12.3038 5.3975 12.2462C5.41814 12.1886 5.42046 12.126 5.40414 12.067C5.38783 12.008 5.35367 11.9554 5.30635 11.9166L4.43562 11.202Z" fill="#1B8CFF"/>
<path d="M2.68603 9.77415C2.62639 9.72451 2.54969 9.70019 2.47234 9.7064C2.39499 9.71261 2.32315 9.74885 2.2722 9.80737C2.22124 9.8659 2.19522 9.94204 2.19972 10.0195C2.20421 10.097 2.23885 10.1696 2.29623 10.2218L3.10997 10.9302C3.13924 10.9567 3.17351 10.9771 3.21076 10.9901C3.24801 11.0032 3.28749 11.0088 3.3269 11.0064C3.36631 11.004 3.40486 10.9938 3.44028 10.9764C3.4757 10.959 3.50729 10.9346 3.5332 10.9048C3.5591 10.8751 3.5788 10.8404 3.59115 10.8029C3.6035 10.7654 3.60824 10.7258 3.60509 10.6864C3.60195 10.6471 3.59099 10.6087 3.57286 10.5737C3.55472 10.5386 3.52977 10.5075 3.49946 10.4822L2.68603 9.77415Z" fill="#1B8CFF"/>
</svg>

<svg xmlns="http://www.w3.org/2000/svg" width="14" height="17" fill="none"><path fill="#1B8CFF" d="m13.722 6.246-.98-1.541a2.97 2.97 0 0 0 .5-1.588.38.38 0 0 0 .005-.083 3.03 3.03 0 0 0-6.06-.137l-2.074.917a1.183 1.183 0 0 0-.505.416L.054 10.782a.29.29 0 0 0-.018.309 7.656 7.656 0 0 0 2.117 2.514 7.349 7.349 0 0 0 2.939 1.348.293.293 0 0 0 .315-.14l1.09-1.816v2.873a.297.297 0 0 0 .171.27 8.407 8.407 0 0 0 7.09 0 .295.295 0 0 0 .172-.27V6.958c0-.252-.072-.5-.208-.712ZM10.213.596a2.446 2.446 0 0 1 2.44 2.446 2.44 2.44 0 0 1-.27 1.098l-.51-.804a1.663 1.663 0 0 0-1.405-.769h-.537c-.2 0-.398.038-.585.11a1.462 1.462 0 0 0-1.383-.121l-.152.068A2.445 2.445 0 0 1 10.213.596ZM6.496 7.068v4.777L5.01 14.324a6.735 6.735 0 0 1-2.497-1.19 7.035 7.035 0 0 1-1.867-2.165l4.453-6.4a.597.597 0 0 1 .252-.211l2.853-1.26a.853.853 0 0 1 .55-.038 1.481 1.481 0 0 0-.247.312l-1.82 3.013a1.344 1.344 0 0 0-.19.683Zm6.84 8.612a7.95 7.95 0 0 1-6.246 0V7.068a.739.739 0 0 1 .107-.377l1.817-3.013a1.079 1.079 0 0 1 .917-.517h.537a1.063 1.063 0 0 1 .903.496l.647 1.015a2.41 2.41 0 0 1-1.805.802 2.487 2.487 0 0 1-.466-.05.731.731 0 0 1 .638-.384.297.297 0 0 0 0-.593 1.323 1.323 0 1 0 0 2.645.297.297 0 0 0 0-.594.73.73 0 0 1-.683-.475 3.012 3.012 0 0 0 2.643-.834l.878 1.377a.726.726 0 0 1 .113.392v8.722Z"/><path fill="#1B8CFF" d="M8.844 8.552a.98.98 0 1 0 .006 1.96.98.98 0 0 0-.006-1.96Zm0 1.366a.386.386 0 1 1 .006-.772.386.386 0 0 1-.006.772ZM11.582 11.97a.98.98 0 1 0-.004 1.961.98.98 0 0 0 .004-1.961Zm0 1.368a.387.387 0 1 1-.003-.774.387.387 0 0 1 .003.774ZM11.921 8.96a.297.297 0 0 0-.417.043l-3.042 3.762a.297.297 0 1 0 .463.373l3.04-3.761a.297.297 0 0 0-.044-.418ZM4.436 11.202a.298.298 0 0 0-.478.14.297.297 0 0 0 .101.319l.871.715a.294.294 0 0 0 .359.013.297.297 0 0 0 .017-.472l-.87-.715ZM2.686 9.774a.297.297 0 0 0-.39.448l.814.708a.295.295 0 0 0 .33.046.296.296 0 0 0 .06-.494l-.814-.708Z"/></svg>
